src/categories-icons-sprite/categories/svg-cat-accessories-bags.svg

<svg width="31" height="28" viewBox="0 0 31 28" fill="none" xmlns="http://www.w3.org/2000/svg">
<path class="p-53433F" d="M21.684 0V6.30683H19.882V1.80195H10.8723V6.30683H9.07031V0H21.684Z" fill="#B9DFFC"/>
<path class="p-3E322E" d="M27.0891 2.77271H25.2871V6.37661H27.0891V2.77271Z" fill="#A1D1FD"/>
<path class="p-3E322E" d="M21.6828 0V6.30683H19.8809V1.80195H15.376V0H21.6828Z" fill="#A1D1FD"/>
<path class="p-53433F" d="M30.7533 11.5662V28H0V11.5662L13.3224 13.5482H17.4309L30.7533 11.5662Z" fill="#58ADE5"/>
<path class="p-3E322E" d="M30.7526 11.5662V28H15.376V13.5482H17.4302L30.7526 11.5662Z" fill="#4D98CB"/>
<path class="p-68544F" d="M30.7533 4.57471V11.5663L17.4309 17.0127H13.3224L0 11.5663V4.57471H30.7533Z" fill="#5FBEFF"/>
<path class="p-53433F" d="M30.7526 4.57471V11.5663L17.4302 17.0127H15.376V4.57471H30.7526Z" fill="#76B7E2"/>
<path class="p-FDBF00" d="M12.6738 15.2468V20.7923H18.0797V15.2468H12.6738Z" fill="#AFD9F6"/>
<path class="p-FF9F00" d="M18.0789 15.2468H15.376V20.7923H18.0789V15.2468Z" fill="#65B3E7"/>
</svg>

<svg width="31" height="28" fill="none" xmlns="http://www.w3.org/2000/svg"><path class="p-53433F" d="M21.684 0v6.307h-1.802V1.802h-9.01v4.505H9.07V0h12.614z" fill="#B9DFFC"/><path class="p-3E322E" d="M27.09 2.773h-1.803v3.604h1.802V2.773zM21.683 0v6.307H19.88V1.802h-4.505V0h6.307z" fill="#A1D1FD"/><path class="p-53433F" d="M30.753 11.566V28H0V11.566l13.322 1.982h4.109l13.322-1.982z" fill="#58ADE5"/><path class="p-3E322E" d="M30.753 11.566V28H15.376V13.548h2.054l13.323-1.982z" fill="#4D98CB"/><path class="p-68544F" d="M30.753 4.575v6.991l-13.322 5.447h-4.109L0 11.566V4.575h30.753z" fill="#5FBEFF"/><path class="p-53433F" d="M30.753 4.575v6.991L17.43 17.013h-2.054V4.575h15.377z" fill="#76B7E2"/><path class="p-FDBF00" d="M12.674 15.247v5.545h5.406v-5.545h-5.406z" fill="#AFD9F6"/><path class="p-FF9F00" d="M18.079 15.247h-2.703v5.545h2.703v-5.545z" fill="#65B3E7"/></svg>
